site/static/docs/images/icons/api.svg

<svg fill="none" height="26" viewBox="0 0 26 26" width="26" xmlns="http://www.w3.org/2000/svg"><g fill="#0075ff"><path d="m26 13c0 7.1797-5.8203 13-13 13s-13-5.8203-13-13 5.8203-13 13-13 13 5.8203 13 13z" opacity=".15"/><path d="m6.35 13.22-.15.6h1.37l-.15-.6c-.08667-.3267-.17667-.67-.27-1.03-.09333-.3667-.17667-.7233-.25-1.07h-.04c-.08.3467-.16333.7033-.25 1.07-.08667.36-.17333.7033-.26 1.03zm-2.35 3.3 2.03-6.52h1.76l2.03 6.52h-1.56l-.39-1.55h-1.97l-.4 1.55z"/><path d="m10.6561 16.52v-6.52h2.31c.3533 0 .6833.0367.99.11.3133.0667.5833.1833.81.35.2333.16.4167.3767.55.65.1333.2667.2.5967.2.99 0 .38-.07.71-.21.99-.1333.28-.3167.51-.55.69s-.5033.3133-.81.4-.6333.13-.98.13h-.84v2.21zm1.47-3.38h.75c.8 0 1.2-.3467 1.2-1.04 0-.34-.1033-.58-.31-.72-.2-.14-.4967-.21-.89-.21h-.75z"/><path d="m16.6422 16.52v-1.24h1.52v-4.04h-1.52v-1.24h4.52v1.24h-1.52v4.04h1.52v1.24z"/></g></svg>

<svg width="26" height="26" viewBox="0 0 26 26" fill="none" xmlns="http://www.w3.org/2000/svg">
<path opacity="0.15" d="M26 13C26 20.1797 20.1797 26 13 26C5.8203 26 0 20.1797 0 13C0 5.8203 5.8203 0 13 0C20.1797 0 26 5.8203 26 13Z" fill="#0075ff"/>
<path d="M6.35 13.22L6.2 13.82H7.57L7.42 13.22C7.33333 12.8933 7.24333 12.55 7.15 12.19C7.05667 11.8233 6.97333 11.4667 6.9 11.12H6.86C6.78 11.4667 6.69667 11.8233 6.61 12.19C6.52333 12.55 6.43667 12.8933 6.35 13.22ZM4 16.52L6.03 10H7.79L9.82 16.52H8.26L7.87 14.97H5.9L5.5 16.52H4Z" fill="#0075ff"/>
<path d="M10.6561 16.52V10H12.9661C13.3194 10 13.6494 10.0367 13.9561 10.11C14.2694 10.1767 14.5394 10.2933 14.7661 10.46C14.9994 10.62 15.1828 10.8367 15.3161 11.11C15.4494 11.3767 15.5161 11.7067 15.5161 12.1C15.5161 12.48 15.4461 12.81 15.3061 13.09C15.1728 13.37 14.9894 13.6 14.7561 13.78C14.5228 13.96 14.2528 14.0933 13.9461 14.18C13.6394 14.2667 13.3128 14.31 12.9661 14.31H12.1261V16.52H10.6561ZM12.1261 13.14H12.8761C13.6761 13.14 14.0761 12.7933 14.0761 12.1C14.0761 11.76 13.9728 11.52 13.7661 11.38C13.5661 11.24 13.2694 11.17 12.8761 11.17H12.1261V13.14Z" fill="#0075ff"/>
<path d="M16.6422 16.52V15.28H18.1622V11.24H16.6422V10H21.1622V11.24H19.6422V15.28H21.1622V16.52H16.6422Z" fill="#0075ff"/>
</svg>
